images/torum.svg

<svg height="250" viewBox="0 0 250 250" width="250" xmlns="http://www.w3.org/2000/svg" xmlns:xlink="http://www.w3.org/1999/xlink"><linearGradient id="a" gradientTransform="matrix(249.808594 0 0 240.464844 .117188 .96875)" gradientUnits="userSpaceOnUse" x1=".193" x2=".8" y1=".895" y2=".102"><stop offset="0" stop-color="#b400ff"/><stop offset="1" stop-color="#ff3a52"/></linearGradient><path d="m246.457031 89.484375v71.011719c.015625 18.949218-11.007812 36.460937-28.914062 45.929687l-63.613281 35.507813c-1.820313.960937-3.695313 1.839844-5.609376 2.628906l-.300781.117188c-14.773437 5.867187-31.546875 5.824218-46.28125-.117188l-.300781-.136719c-1.804688-.734375-3.578125-1.550781-5.328125-2.480469l-1.550781-.820312-62.070313-34.730469c-17.898437-9.472656-28.917969-26.984375-28.902343-45.929687v-70.980469c0-18.949219 7.535156-33.277344 25.429687-42.757813l67.101563-35.472656c15.953124-8.441406 35.339843-9.417968 52.207031-2.625 1.917969.78125 3.792969 1.660156 5.609375 2.625l67.101562 35.507813c17.890625 9.460937 25.445313 23.777343 25.445313 42.714843zm0 0" fill="#fff"/><path d="m249.925781 89.476562v71.007813c.015625 18.949219-11.011719 36.464844-28.917969 45.929687l-62.21875 33.082032-2.632812 1.3125c-1.699219.859375-3.769531.832031-5.441406-.074219s-2.695313-2.554687-2.6875-4.335937v-50.550782c-14.820313-6.070312-31.734375-6.160156-46.628906-.246094v50.601563c.003906 1.769531-1.007813 3.410156-2.664063 4.320313-1.652344.90625-3.707031.953124-5.410156.113281l-2.160157-1.058594-62.140624-33.199219c-17.898438-9.472656-28.917969-26.980468-28.90625-45.921875v-70.980469c-.011719-18.945312 11.007812-36.457031 28.90625-45.929687l67.097656-35.472656c15.957031-8.441407 35.34375-9.414063 52.210937-2.625 1.917969.785156 3.789063 1.660156 5.609375 2.625l67.097656 35.511719c17.882813 9.464843 28.894532 26.960937 28.886719 45.890624zm0 0" fill="url(#a)"/><path d="m204.765625 121.222656c-.253906 7.574219-4.878906 14.449219-12.144531 18.058594-7.269532 3.605469-16.078125 3.398438-23.136719-.546875l-18.632813-10.609375c-.570312-.355469-1.308593-.386719-1.914062-.085938-.601562.300782-.972656.886719-.957031 1.515626v115.082031c-14.792969 5.875-31.585938 5.832031-46.34375-.117188l-.300781-.132812v-114.832031c.015624-.628907-.351563-1.214844-.957032-1.515626-.605468-.300781-1.34375-.269531-1.910156.085938l-18.636719 10.609375c-7.105469 4.453125-16.3125 4.9375-23.925781 1.257813-7.613281-3.683594-12.378906-10.921876-12.382812-18.8125 0-7.886719 4.757812-15.128907 12.367187-18.816407l56.769531-32.367187c7.417969-4.132813 16.734375-4.132813 24.15625 0l56.769532 32.367187c7.175781 3.96875 11.449218 11.183594 11.179687 18.859375zm0 0" fill="#fff"/><path d="m244.308594 163.210938c-3.144532 0-5.691406-2.339844-5.691406-5.222657v-68.625c-.085938-15.085937-8.882813-29.003906-23.121094-36.574219l-67.695313-35.902343c-14.550781-7.519531-32.375-7.347657-46.746093.457031l-59.070313 31.1875c-2.722656 1.40625-6.171875.535156-7.730469-1.945312-1.558594-2.484376-.640625-5.65625 2.054688-7.105469l59.007812-31.121094c17.886719-9.6875 40.054688-9.886719 58.144532-.515625l67.738281 35.925781c17.738281 9.441407 28.695312 26.789063 28.796875 45.59375v68.625c0 2.878907-2.542969 5.214844-5.6875 5.222657zm0 0" fill="#ff7db7"/><path d="m218.339844 53.484375c-.992188-.007813-1.964844-.25-2.820313-.703125l-67.320312-35.71875c-1.808594-.894531-2.953125-2.617188-2.988281-4.5-.035157-1.886719 1.039062-3.644531 2.816406-4.597656 1.773437-.953125 3.972656-.953125 5.75-.003906l.128906.066406 67.320312 35.71875c2.230469 1.183594 3.3125 3.589844 2.644532 5.871094-.667969 2.28125-2.925782 3.867187-5.503906 3.867187zm0 0" fill="#ffd6e6"/><path d="m96.035156 241.339844c-1.003906 0-1.992187-.246094-2.855468-.710938l-64.644532-34.523437c-17.882812-9.597657-28.773437-27.253907-28.53124975-46.25v-54.21875c0-2.882813 2.55078175-5.222657 5.69531275-5.222657 3.148437 0 5.695312 2.339844 5.695312 5.222657v54.269531c-.214843 15.257812 8.523438 29.449219 22.882813 37.164062l64.636718 34.515626c2.222657 1.1875 3.304688 3.597656 2.632813 5.875-.671875 2.28125-2.929687 3.863281-5.503906 3.859374zm0 0" fill="#811585"/><path d="m95.953125 241.339844c-1.003906 0-1.988281-.242188-2.855469-.703125l-45.167968-24.027344c-2.71875-1.449219-3.640626-4.640625-2.0625-7.132813 1.578124-2.488281 5.0625-3.335937 7.777343-1.886718l45.171875 24.011718c2.230469 1.1875 3.316406 3.597657 2.644532 5.878907-.671876 2.28125-2.929688 3.863281-5.507813 3.859375zm0 0" fill="#5b115c"/><path d="m207.027344 138.441406c-1.953125 0-3.765625-.917968-4.8125-2.429687-1.042969-1.515625-1.167969-3.410157-.328125-5.027344 1.507812-2.90625 2.460937-6.027344 2.816406-9.226563.195313-7.074218-3.296875-13.808593-9.402344-18.136718l-59.816406-33.945313c-3.34375-1.601562-7.054687-2.453125-10.824219-2.484375-4.59375-.003906-9.085937 1.242188-12.90625 3.582032-2.621094 1.597656-6.15625.945312-7.898437-1.457032-1.742188-2.398437-1.03125-5.640625 1.585937-7.238281 5.714844-3.492187 12.429688-5.347656 19.296875-5.328125 5.753907.058594 11.40625 1.398438 16.46875 3.902344l60.796875 34.574218c9.140625 6.4375 14.371094 16.5 14.0625 27.0625-.429687 4.566407-1.742187 9.023438-3.875 13.167969-.945312 1.828125-2.957031 2.992188-5.164062 2.984375zm0 0" fill="#ff7db7"/><path d="m167.5625 86.945312c-1.0625 0-2.105469-.277343-3.003906-.796874l-19.390625-11.007813c-1.765625-.972656-2.816407-2.742187-2.757813-4.625.058594-1.886719 1.222656-3.59375 3.046875-4.472656 1.820313-.875 4.015625-.78125 5.742188.242187l19.390625 11.011719c2.160156 1.230469 3.164062 3.628906 2.460937 5.867187-.699219 2.242188-2.9375 3.785157-5.480469 3.78125zm0 0" fill="#ffd6e6"/></svg>

<svg xmlns="http://www.w3.org/2000/svg" xmlns:xlink="http://www.w3.org/1999/xlink" width="250px" height="250px" viewBox="0 0 250 250" version="1.1">
<defs>
<linearGradient id="linear0" gradientUnits="userSpaceOnUse" x1="0.193" y1="0.895" x2="0.8" y2="0.102" gradientTransform="matrix(249.808594,0,0,240.464844,0.117188,0.96875)">
<stop offset="0" style="stop-color:rgb(70.588237%,0%,100%);stop-opacity:1;"/>
<stop offset="1" style="stop-color:rgb(100%,22.745098%,32.156864%);stop-opacity:1;"/>
</linearGradient>
</defs>
<g id="surface1">
<path style=" stroke:none;fill-rule:nonzero;fill:rgb(100%,100%,100%);fill-opacity:1;" d="M 246.457031 89.484375 L 246.457031 160.496094 C 246.472656 179.445312 235.449219 196.957031 217.542969 206.425781 L 153.929688 241.933594 C 152.109375 242.894531 150.234375 243.773438 148.320312 244.5625 L 148.019531 244.679688 C 133.246094 250.546875 116.472656 250.503906 101.738281 244.5625 L 101.4375 244.425781 C 99.632812 243.691406 97.859375 242.875 96.109375 241.945312 L 94.558594 241.125 L 32.488281 206.394531 C 14.589844 196.921875 3.570312 179.410156 3.585938 160.464844 L 3.585938 89.484375 C 3.585938 70.535156 11.121094 56.207031 29.015625 46.726562 L 96.117188 11.253906 C 112.070312 2.8125 131.457031 1.835938 148.324219 8.628906 C 150.242188 9.410156 152.117188 10.289062 153.933594 11.253906 L 221.035156 46.761719 C 238.925781 56.222656 246.480469 70.539062 246.480469 89.476562 Z M 246.457031 89.484375 "/>
<path style=" stroke:none;fill-rule:nonzero;fill:url(#linear0);" d="M 249.925781 89.476562 L 249.925781 160.484375 C 249.941406 179.433594 238.914062 196.949219 221.007812 206.414062 L 158.789062 239.496094 L 156.15625 240.808594 C 154.457031 241.667969 152.386719 241.640625 150.714844 240.734375 C 149.042969 239.828125 148.019531 238.179688 148.027344 236.398438 L 148.027344 185.847656 C 133.207031 179.777344 116.292969 179.6875 101.398438 185.601562 L 101.398438 236.203125 C 101.402344 237.972656 100.390625 239.613281 98.734375 240.523438 C 97.082031 241.429688 95.027344 241.476562 93.324219 240.636719 L 91.164062 239.578125 L 29.023438 206.378906 C 11.125 196.90625 0.105469 179.398438 0.117188 160.457031 L 0.117188 89.476562 C 0.105469 70.53125 11.125 53.019531 29.023438 43.546875 L 96.121094 8.074219 C 112.078125 -0.367188 131.464844 -1.339844 148.332031 5.449219 C 150.25 6.234375 152.121094 7.109375 153.941406 8.074219 L 221.039062 43.585938 C 238.921875 53.050781 249.933594 70.546875 249.925781 89.476562 Z M 249.925781 89.476562 "/>
<path style=" stroke:none;fill-rule:nonzero;fill:rgb(100%,100%,100%);fill-opacity:1;" d="M 204.765625 121.222656 C 204.511719 128.796875 199.886719 135.671875 192.621094 139.28125 C 185.351562 142.886719 176.542969 142.679688 169.484375 138.734375 L 150.851562 128.125 C 150.28125 127.769531 149.542969 127.738281 148.9375 128.039062 C 148.335938 128.339844 147.964844 128.925781 147.980469 129.554688 L 147.980469 244.636719 C 133.1875 250.511719 116.394531 250.46875 101.636719 244.519531 L 101.335938 244.386719 L 101.335938 129.554688 C 101.351562 128.925781 100.984375 128.339844 100.378906 128.039062 C 99.773438 127.738281 99.035156 127.769531 98.46875 128.125 L 79.832031 138.734375 C 72.726562 143.1875 63.519531 143.671875 55.90625 139.992188 C 48.292969 136.308594 43.527344 129.070312 43.523438 121.179688 C 43.523438 113.292969 48.28125 106.050781 55.890625 102.363281 L 112.660156 69.996094 C 120.078125 65.863281 129.394531 65.863281 136.816406 69.996094 L 193.585938 102.363281 C 200.761719 106.332031 205.035156 113.546875 204.765625 121.222656 Z M 204.765625 121.222656 "/>
<path style=" stroke:none;fill-rule:nonzero;fill:rgb(100%,49.019608%,71.764708%);fill-opacity:1;" d="M 244.308594 163.210938 C 241.164062 163.210938 238.617188 160.871094 238.617188 157.988281 L 238.617188 89.363281 C 238.53125 74.277344 229.734375 60.359375 215.496094 52.789062 L 147.800781 16.886719 C 133.25 9.367188 115.425781 9.539062 101.054688 17.34375 L 41.984375 48.53125 C 39.261719 49.9375 35.8125 49.066406 34.253906 46.585938 C 32.695312 44.101562 33.613281 40.929688 36.308594 39.480469 L 95.316406 8.359375 C 113.203125 -1.328125 135.371094 -1.527344 153.460938 7.84375 L 221.199219 43.769531 C 238.9375 53.210938 249.894531 70.558594 249.996094 89.363281 L 249.996094 157.988281 C 249.996094 160.867188 247.453125 163.203125 244.308594 163.210938 Z M 244.308594 163.210938 "/>
<path style=" stroke:none;fill-rule:nonzero;fill:rgb(100%,83.92157%,90.196079%);fill-opacity:1;" d="M 218.339844 53.484375 C 217.347656 53.476562 216.375 53.234375 215.519531 52.78125 L 148.199219 17.0625 C 146.390625 16.167969 145.246094 14.445312 145.210938 12.5625 C 145.175781 10.675781 146.25 8.917969 148.027344 7.964844 C 149.800781 7.011719 152 7.011719 153.777344 7.960938 L 153.90625 8.027344 L 221.226562 43.746094 C 223.457031 44.929688 224.539062 47.335938 223.871094 49.617188 C 223.203125 51.898438 220.945312 53.484375 218.367188 53.484375 Z M 218.339844 53.484375 "/>
<path style=" stroke:none;fill-rule:nonzero;fill:rgb(50.588238%,8.235294%,52.156866%);fill-opacity:1;" d="M 96.035156 241.339844 C 95.03125 241.339844 94.042969 241.09375 93.179688 240.628906 L 28.535156 206.105469 C 10.652344 196.507812 -0.238281 178.851562 0.00390625 159.855469 L 0.00390625 105.636719 C 0.00390625 102.753906 2.554688 100.414062 5.699219 100.414062 C 8.847656 100.414062 11.394531 102.753906 11.394531 105.636719 L 11.394531 159.90625 C 11.179688 175.164062 19.917969 189.355469 34.277344 197.070312 L 98.914062 231.585938 C 101.136719 232.773438 102.21875 235.183594 101.546875 237.460938 C 100.875 239.742188 98.617188 241.324219 96.042969 241.320312 Z M 96.035156 241.339844 "/>
<path style=" stroke:none;fill-rule:nonzero;fill:rgb(35.686275%,6.666667%,36.078432%);fill-opacity:1;" d="M 95.953125 241.339844 C 94.949219 241.339844 93.964844 241.097656 93.097656 240.636719 L 47.929688 216.609375 C 45.210938 215.160156 44.289062 211.96875 45.867188 209.476562 C 47.445312 206.988281 50.929688 206.140625 53.644531 207.589844 L 98.816406 231.601562 C 101.046875 232.789062 102.132812 235.199219 101.460938 237.480469 C 100.789062 239.761719 98.53125 241.34375 95.953125 241.339844 Z M 95.953125 241.339844 "/>
<path style=" stroke:none;fill-rule:nonzero;fill:rgb(100%,49.019608%,71.764708%);fill-opacity:1;" d="M 207.027344 138.441406 C 205.074219 138.441406 203.261719 137.523438 202.214844 136.011719 C 201.171875 134.496094 201.046875 132.601562 201.886719 130.984375 C 203.394531 128.078125 204.347656 124.957031 204.703125 121.757812 C 204.898438 114.683594 201.40625 107.949219 195.300781 103.621094 L 135.484375 69.675781 C 132.140625 68.074219 128.429688 67.222656 124.660156 67.191406 C 120.066406 67.1875 115.574219 68.433594 111.753906 70.773438 C 109.132812 72.371094 105.597656 71.71875 103.855469 69.316406 C 102.113281 66.917969 102.824219 63.675781 105.441406 62.078125 C 111.15625 58.585938 117.871094 56.730469 124.738281 56.75 C 130.492188 56.808594 136.144531 58.148438 141.207031 60.652344 L 202.003906 95.226562 C 211.144531 101.664062 216.375 111.726562 216.066406 122.289062 C 215.636719 126.855469 214.324219 131.3125 212.191406 135.457031 C 211.246094 137.285156 209.234375 138.449219 207.027344 138.441406 Z M 207.027344 138.441406 "/>
<path style=" stroke:none;fill-rule:nonzero;fill:rgb(100%,83.92157%,90.196079%);fill-opacity:1;" d="M 167.5625 86.945312 C 166.5 86.945312 165.457031 86.667969 164.558594 86.148438 L 145.167969 75.140625 C 143.402344 74.167969 142.351562 72.398438 142.410156 70.515625 C 142.46875 68.628906 143.632812 66.921875 145.457031 66.042969 C 147.277344 65.167969 149.472656 65.261719 151.199219 66.285156 L 170.589844 77.296875 C 172.75 78.527344 173.753906 80.925781 173.050781 83.164062 C 172.351562 85.40625 170.113281 86.949219 167.570312 86.945312 Z M 167.5625 86.945312 "/>
</g>
</svg>
